X: 1
T: the Cuckoo's Nest
O: Trad
M: 6/8
L: 1/8
K: D
|:B | "D"AFD DFD | AFA d2B | AFD DFD | "A7"ECA, A,2B \
| "D"AFD DFD | AFA d2B | "G"BdB "A7"cec | "D"d2d d2 :|
|| g | "D"faf d2f | "G"gbg "A7"e2g | "D"faf d2f | "A7"ecA A2g \
| "D"faf d2f | "G"gbg "A7"e2g | "D"fdf "A7"ece | "D"d2d d2g ||
|| g | "D"faf d2f | "G"gbg "A7"e2g | "D"faf d2f | "A7"ecA A2g \
| "D"faf def | "G"gbg "A7"efg | "D"faf "A7"gec | "D"d2d d2 |]
